X:1
T:The Sheltering Rock
T:The Sheltering Rock
T:Wiliam Howard Doane
T:Frances Jane (Fanny) Crosby, 1875
T:Public Domain Courtesy of the Cyber Hymnal™
T:Public Domain Courtesy of the Cyber Hymnal™
C:Wiliam Howard Doane
Z:Public Domain
Z:Courtesy of the Cyber Hymnal™
%%score ( 1 2 ) ( 3 4 )
L:1/8
Q:1/4=95
M:6/8
K:Eb
V:1 treble 
V:2 treble 
V:3 bass 
V:4 bass 
V:1
 ([EG]/[FA]/) | [GB]2 [GB] [Ac][GB][^F=A] | [GB]2 [Ac] [GB]2 [EG] | [GB]2 [FA] [EG]2 [DF] | %4
w: 1.~Come *|stay thy feet by the|shel- t’ring Rock, And|sweet thy rest will|
w: 2.~Come *|bring thy heart to the|shel- t’ring Rock, And|all thy weight of|
 [EG]3- [EG]2 ([EG]/[FA]/) | [GB]2 [GB] [Ac][GB][^F=A] | [GB]2 [Ac] [GB]2 [Ge] | %7
w: be; * Come *|lave thy brow in the|spray that falls So|
w: care; * Look *|up, the light of a|Sav- ior’s love Is|
 [Fd]2 [FB] (=Ad)[Ec] | [DB]3- [DB]2 [GB] | [Ge][Ge][Ge] [Ge][Bd][Ac] | [GB]3- [GB]2 [EG] | %11
w: clear and cool * for|thee; * Too|long has thou lin- gered a-|way, * But|
w: smil- ing bright- * ly|there; * He|wait- eth to wel- come thee|home, * O|
 [FA][FA][FA] [FA][EG][DF] | ([EG]3 [GB]2) [GB] | [Ge]2 [Ge] [Ge][Bd][Ac] | %14
w: mer- cy is plead- ing with|thee; * O|stay thy feet by the|
w: breathe but one pen- i- tent|prayer; * The|blood that flows from His|
 [Ac]2 [GB] !fermata![GB]2 [Ec] | [EB]2 E [EG]2 [DF] | E3- E2 ||"^Refrain" [EG] | [DB]3 [DB]3 | %19
w: shel- t’ring Rock, And|sweet thy rest will|be. *|Then|hide thee,|
w: wound- ed side, Thro’|faith will cleanse thee|there. *|||
 [EB]3 [EG]3 | [DB]2 [DB] [DB][Ec][Fd] | [Ge]6 | [Ae]3 [Ac]3 | [GB]3 !fermata![Ge]3 | %24
w: hide thee|In the cleft of the|Rock;|Hide thee,|hide thee,|
w: |||||
 [Fd][Fd][Fd] [Ad][Ac][Ad] | [Ge]3- [Ge]2 |] %26
w: Hide in the cleft of the|Rock. *|
w: ||
V:2
 x | x6 | x6 | x6 | x6 | x6 | x6 | x3 F2 x | x6 | x6 | x6 | x6 | x6 | x6 | x6 | x2 E x3 | E3- E2 || %17
 x | x6 | x6 | x6 | x6 | x6 | x6 | x6 | x5 |] %26
V:3
 [E,B,] | [E,B,]2 [E,B,] [E,B,][E,B,][E,C] | [E,B,]2 [E,E] [E,E]2 [E,B,] | %3
 [B,,B,]2 [B,,B,] [B,,B,]2 [B,,B,] | [E,B,]3- [E,B,]2 [E,B,] | [E,B,]2 [E,B,] [E,B,][E,B,][E,C] | %6
 [E,B,]2 [E,E] [E,E]2 [E,B,] | [F,B,]2 [F,D] (CB,)[F,=A,] | [B,,B,]3- [B,,B,]2 z | z2 z3 [E,B,] | %10
 [E,B,][E,B,][E,B,] [E,B,][E,B,][E,B,] | [B,,B,][B,,B,][B,,B,] [B,,B,][B,,B,][B,,B,] | %12
 ([E,-B,]3 [E,E]2) [E,E] | [E,B,]2 [E,B,] [E,B,][E,E][E,E] | [E,E]2 [E,E] !fermata![E,E]2 [E,A,] | %15
 [E,G,]2 [G,B,] B,2 [B,,A,] | [E,G,]3- [E,G,]2 || [E,B,] | [B,,B,][B,,B,][B,,B,] [B,,A,]3 | %19
 [E,G,][E,G,][E,G,] [E,B,]3 | B,2 B, [B,,B,][B,,B,][B,,B,] | [E,B,]6 | [A,C][A,C][A,C] [A,E]3 | %23
 [E,E][E,E][E,E] !fermata![E,B,]3 | B,B,B, [B,,B,][B,,B,][B,,B,] | [E,B,]3- [E,B,]2 |] %26
V:4
 x | x6 | x6 | x6 | x6 | x6 | x6 | x3 F,2 x | x6 | x6 | x6 | x6 | x6 | x6 | x6 | x3 B,2 x | x5 || %17
 x | x6 | x6 | B,2 B, x3 | x6 | x6 | x6 | B,B,B, x3 | x5 |] %26

